azure-icons/Globe-Error.svg

<svg xmlns="http://www.w3.org/2000/svg" viewBox="0 0 18 18"><defs><linearGradient id="a" x1="-223.179" y1="749.615" x2="-223.179" y2="761.741" gradientTransform="scale(1 -1) rotate(-45 -1027.915 95.67)" gradientUnits="userSpaceOnUse"><stop offset="0" stop-color="#b31b1b"/><stop offset=".82" stop-color="#e62323"/></linearGradient></defs><path d="M9.3 14.752c0-.154-.613-.154-.613 0a1.656 1.656 0 01-1.636 1.8h3.882a1.655 1.655 0 01-1.633-1.8z" fill="#999"/><path d="M13.335 1.1a.571.571 0 01.807 0l.026.028a8.32 8.32 0 01-11.736 11.73.57.57 0 01-.049-.8l.025-.026A.571.571 0 013.19 12 7.178 7.178 0 0013.312 1.882a.573.573 0 01.023-.782zM11.946 17.5h-5.9a.476.476 0 01-.476-.476.476.476 0 01.476-.476h5.9a.476.476 0 01.475.476.476.476 0 01-.475.476z" fill="#a3a3a3"/><circle cx="7.871" cy="6.563" r="6.063" fill="url(#a)"/><g fill="#f2f2f2"><path d="M8.391 8.105H7.256a.255.255 0 01-.265-.236l-.122-5.164a.254.254 0 01.266-.246h1.377a.254.254 0 01.266.246l-.122 5.164a.255.255 0 01-.265.236z"/><circle cx="7.823" cy="9.647" r=".905"/></g></svg>

<svg xmlns="http://www.w3.org/2000/svg" width="18" height="18" viewBox="0 0 18 18"><defs><linearGradient id="f97bfabb-698c-4f28-ad92-a76baa953a8b" x1="-223.179" y1="749.615" x2="-223.179" y2="761.741" gradientTransform="matrix(0.707, 0.707, 0.707, -0.707, -368.663, 698.719)" gradientUnits="userSpaceOnUse"><stop offset="0" stop-color="#b31b1b" /><stop offset="0.82" stop-color="#e62323" /></linearGradient></defs><title>MsPortalFx.base.images-69</title><g id="a5521566-a820-402c-879d-299d720d1210"><g><path d="M9.3,14.752c0-.154-.613-.154-.613,0a1.656,1.656,0,0,1-1.636,1.8h3.882A1.655,1.655,0,0,1,9.3,14.752Z" fill="#999" /><path d="M13.335,1.1a.571.571,0,0,1,.807,0l.026.028A8.32,8.32,0,0,1,2.432,12.858a.57.57,0,0,1-.049-.8l.025-.026h0A.571.571,0,0,1,3.19,12,7.178,7.178,0,0,0,13.312,1.882.573.573,0,0,1,13.335,1.1Z" fill="#a3a3a3" /><path d="M11.946,17.5h-5.9a.476.476,0,0,1-.476-.476h0a.476.476,0,0,1,.476-.476h5.9a.476.476,0,0,1,.475.476h0A.476.476,0,0,1,11.946,17.5Z" fill="#a3a3a3" /><circle cx="7.871" cy="6.563" r="6.063" fill="url(#f97bfabb-698c-4f28-ad92-a76baa953a8b)" /><g><path d="M8.391,8.105H7.256a.255.255,0,0,1-.265-.236L6.869,2.705a.254.254,0,0,1,.266-.246H8.512a.254.254,0,0,1,.266.246L8.656,7.869A.255.255,0,0,1,8.391,8.105Z" fill="#f2f2f2" /><circle cx="7.823" cy="9.647" r="0.905" fill="#f2f2f2" /></g></g></g></svg>
